static/assets/template/assets/img/icons/essential/detailed/Camera.svg

<svg height="117" viewBox="0 0 150 117" width="150" xmlns="http://www.w3.org/2000/svg"><g fill="none" fill-rule="evenodd" transform="translate(2 2)"><path d="m146.2 31.3v68.9 1c-.5 6.5-6 11.7-12.6 11.7h-120.7c-6.7 0-12.1-5.1-12.6-11.7 0-.3 0-.7 0-1v-68.9c0-7 5.7-12.7 12.7-12.7h120.7c6.8 0 12.5 5.7 12.5 12.7z" fill-rule="nonzero"/><path d="m146.2 35.8v65.2.9c-.5 6.2-5.8 11-12.4 11h-118.1c-6.5 0-11.9-4.9-12.4-11 0-.3 0-.6 0-.9v-65.2c0-6.6 5.6-12 12.4-12h118.1c6.8 0 12.4 5.4 12.4 12z" fill="#add2ff" fill-rule="nonzero"/><path d="m146.2 35.8v55.8.9c-.5 6.2-5.8 11-12.4 11h-118.1c-6.5 0-11.9-4.9-12.4-11 0-.3 0-.6 0-.9v-55.8c0-6.6 5.6-12 12.4-12h118.1c6.8 0 12.4 5.4 12.4 12z" fill="#d4e7ff" fill-rule="nonzero"/><path d="m47.7 18.6h85.8c7 0 12.7 5.7 12.7 12.7v68.9 1c-.5 6.5-6 11.7-12.6 11.7h-120.7c-6.7 0-12.1-5.1-12.6-11.7 0-.3 0-.7 0-1v-68.9c0-7 5.7-12.7 12.7-12.7h23.5" stroke-linecap="round" stroke-linejoin="round" stroke-width="3"/><path d="m128.5 39.6h-15.7c-1.7 0-3-1.3-3-3v-5.1c0-1.7 1.3-3 3-3h15.7c1.7 0 3 1.3 3 3v5.1c0 1.7-1.3 3-3 3z" fill-rule="nonzero"/><path d="m128.5 39.6h-15.7c-1.7 0-3-1.3-3-3v-5.1c0-1.7 1.3-3 3-3h15.7c1.7 0 3 1.3 3 3v5.1c0 1.7-1.3 3-3 3z" stroke-linecap="round" stroke-linejoin="round" stroke-width="3"/><circle cx="73.1" cy="68.1" fill-rule="nonzero" r="22.6"/><g stroke-linecap="round" stroke-linejoin="round" stroke-width="3"><path d="m87 86c-3.8 3-8.6 4.7-13.8 4.7-12.5 0-22.6-10.1-22.6-22.6s10.1-22.6 22.6-22.6 22.6 10.1 22.6 22.6c0 2.5-.4 4.9-1.1 7.1"/><path d="m72.6 32.3h.6c19.7 0 35.7 16 35.7 35.7s-16 35.7-35.7 35.7-35.7-16-35.7-35.7c0-9.2 3.5-17.7 9.3-24"/><path d="m51.5 39.6c1.6-1.2 3.3-2.3 5-3.2"/><path d="m59.9 101.3h-59.7c0-.3 0-.7 0-1v-49.7h41.9"/><path d="m114 50.6h32.2v49.7 1h-59.7"/><path d="m33.2 18.5h-21v-7.5c0-.7.5-1.2 1.2-1.2h18.6c.7 0 1.2.5 1.2 1.2z" fill-rule="nonzero"/></g><path d="m88.2.4h-30.2c-3.4 0-6.4 2.3-7.3 5.6l-3.3 12.7h51.4l-3.3-12.7c-.9-3.3-3.8-5.6-7.3-5.6z" fill-rule="nonzero"/><path d="m89 4.2h-27.9c-3.2 0-5.9 1.8-6.7 4.4l-3.1 10h47.6l-3.1-10c-.8-2.6-3.6-4.4-6.8-4.4z" fill="#d4e7ff" fill-rule="nonzero"/><path d="m88.2.4h-30.2c-3.4 0-6.4 2.3-7.3 5.6l-3.3 12.7h51.4l-3.3-12.7c-.9-3.3-3.8-5.6-7.3-5.6z" stroke-linecap="round" stroke-linejoin="round" stroke-width="3"/><circle cx="63.6" cy="60.7" fill-rule="nonzero" r="4"/></g></svg>

<?xml version="1.0" encoding="UTF-8"?>
<svg width="150px" height="117px" viewBox="0 0 150 117" version="1.1" xmlns="http://www.w3.org/2000/svg" xmlns:xlink="http://www.w3.org/1999/xlink">
    <!-- Generator: Sketch 51.2 (57519) - http://www.bohemiancoding.com/sketch -->
    <title>Camera</title>
    <desc>Created with Sketch.</desc>
    <defs></defs>
    <g id="Page-1" stroke="none" stroke-width="1" fill="none" fill-rule="evenodd">
        <g id="Camera" transform="translate(2.000000, 2.000000)">
            <path d="M146.2,31.3 L146.2,100.2 C146.2,100.5 146.2,100.9 146.2,101.2 C145.7,107.7 140.2,112.9 133.6,112.9 L12.9,112.9 C6.2,112.9 0.8,107.8 0.3,101.2 C0.3,100.9 0.3,100.5 0.3,100.2 L0.3,31.3 C0.3,24.3 6,18.6 13,18.6 L133.7,18.6 C140.5,18.6 146.2,24.3 146.2,31.3 Z" id="Shape" class="fill-neutral" fill-rule="nonzero"></path>
            <path d="M146.2,35.8 L146.2,101 C146.2,101.3 146.2,101.6 146.2,101.9 C145.7,108.1 140.4,112.9 133.8,112.9 L15.7,112.9 C9.2,112.9 3.8,108 3.3,101.9 C3.3,101.6 3.3,101.3 3.3,101 L3.3,35.8 C3.3,29.2 8.9,23.8 15.7,23.8 L133.8,23.8 C140.6,23.8 146.2,29.2 146.2,35.8 Z" id="Shape" fill="#ADD2FF" fill-rule="nonzero"></path>
            <path d="M146.2,35.8 L146.2,91.6 C146.2,91.9 146.2,92.2 146.2,92.5 C145.7,98.7 140.4,103.5 133.8,103.5 L15.7,103.5 C9.2,103.5 3.8,98.6 3.3,92.5 C3.3,92.2 3.3,91.9 3.3,91.6 L3.3,35.8 C3.3,29.2 8.9,23.8 15.7,23.8 L133.8,23.8 C140.6,23.8 146.2,29.2 146.2,35.8 Z" id="Shape" fill="#D4E7FF" fill-rule="nonzero"></path>
            <path d="M47.7,18.6 L133.5,18.6 C140.5,18.6 146.2,24.3 146.2,31.3 L146.2,100.2 C146.2,100.5 146.2,100.9 146.2,101.2 C145.7,107.7 140.2,112.9 133.6,112.9 L12.9,112.9 C6.2,112.9 0.8,107.8 0.3,101.2 C0.3,100.9 0.3,100.5 0.3,100.2 L0.3,31.3 C0.3,24.3 6,18.6 13,18.6 L36.5,18.6" id="Shape" class="stroke-primary" stroke-width="3" stroke-linecap="round" stroke-linejoin="round"></path>
            <path d="M128.5,39.6 L112.8,39.6 C111.1,39.6 109.8,38.3 109.8,36.6 L109.8,31.5 C109.8,29.8 111.1,28.5 112.8,28.5 L128.5,28.5 C130.2,28.5 131.5,29.8 131.5,31.5 L131.5,36.6 C131.5,38.3 130.2,39.6 128.5,39.6 Z" id="Shape" class="fill-neutral" fill-rule="nonzero"></path>
            <path d="M128.5,39.6 L112.8,39.6 C111.1,39.6 109.8,38.3 109.8,36.6 L109.8,31.5 C109.8,29.8 111.1,28.5 112.8,28.5 L128.5,28.5 C130.2,28.5 131.5,29.8 131.5,31.5 L131.5,36.6 C131.5,38.3 130.2,39.6 128.5,39.6 Z" id="Shape" class="stroke-primary" stroke-width="3" stroke-linecap="round" stroke-linejoin="round"></path>
            <circle id="Oval" class="fill-primary-500" fill-rule="nonzero" cx="73.1" cy="68.1" r="22.6"></circle>
            <path d="M87,86 C83.2,89 78.4,90.7 73.2,90.7 C60.7,90.7 50.6,80.6 50.6,68.1 C50.6,55.6 60.7,45.5 73.2,45.5 C85.7,45.5 95.8,55.6 95.8,68.1 C95.8,70.6 95.4,73 94.7,75.2" id="Shape" class="stroke-primary" stroke-width="3" stroke-linecap="round" stroke-linejoin="round"></path>
            <path d="M72.6,32.3 C72.8,32.3 73,32.3 73.2,32.3 C92.9,32.3 108.9,48.3 108.9,68 C108.9,87.7 92.9,103.7 73.2,103.7 C53.5,103.7 37.5,87.7 37.5,68 C37.5,58.8 41,50.3 46.8,44" id="Shape" class="stroke-primary" stroke-width="3" stroke-linecap="round" stroke-linejoin="round"></path>
            <path d="M51.5,39.6 C53.1,38.4 54.8,37.3 56.5,36.4" id="Shape" class="stroke-primary" stroke-width="3" stroke-linecap="round" stroke-linejoin="round"></path>
            <path d="M59.9,101.3 L0.2,101.3 C0.2,101 0.2,100.6 0.2,100.3 L0.2,50.6 L42.1,50.6" id="Shape" class="stroke-primary" stroke-width="3" stroke-linecap="round" stroke-linejoin="round"></path>
            <path d="M114,50.6 L146.2,50.6 L146.2,100.3 C146.2,100.6 146.2,101 146.2,101.3 L86.5,101.3" id="Shape" class="stroke-primary" stroke-width="3" stroke-linecap="round" stroke-linejoin="round"></path>
            <path d="M33.2,18.5 L12.2,18.5 L12.2,11 C12.2,10.3 12.7,9.8 13.4,9.8 L32,9.8 C32.7,9.8 33.2,10.3 33.2,11 L33.2,18.5 Z" id="Shape" stroke-width="3" class="stroke-primary fill-primary-500" fill-rule="nonzero" stroke-linecap="round" stroke-linejoin="round"></path>
            <path d="M88.2,0.4 L58,0.4 C54.6,0.4 51.6,2.7 50.7,6 L47.4,18.7 L98.8,18.7 L95.5,6 C94.6,2.7 91.7,0.4 88.2,0.4 Z" id="Shape" class="fill-neutral" fill-rule="nonzero"></path>
            <path d="M89,4.2 L61.1,4.2 C57.9,4.2 55.2,6 54.4,8.6 L51.3,18.6 L98.9,18.6 L95.8,8.6 C95,6 92.2,4.2 89,4.2 Z" id="Shape" fill="#D4E7FF" fill-rule="nonzero"></path>
            <path d="M88.2,0.4 L58,0.4 C54.6,0.4 51.6,2.7 50.7,6 L47.4,18.7 L98.8,18.7 L95.5,6 C94.6,2.7 91.7,0.4 88.2,0.4 Z" id="Shape" class="stroke-primary" stroke-width="3" stroke-linecap="round" stroke-linejoin="round"></path>
            <circle id="Oval" class="fill-neutral" fill-rule="nonzero" cx="63.6" cy="60.7" r="4"></circle>
        </g>
    </g>
</svg>
